X:180
T: Rocky Shore
S: Reavy Collection: "Music of Corktown"
Z: B.Black
N: variant of "The Wise Maid"
M: 4/4
L: 1/8
R: reel
K: D
DE|: (3FGF EG FEDC|DFAB AGFA|d2 eg fdec|dAFA BGEG|
(3FGF EG FEDC|DFAB AGFA|d2 eg fdec|1 dBAG FDDE :|2\
dBAG FD||
Dc|d2 AG (3FED FA|dfaf gfeg|fedf edcA|Bcdf ecA=c|
BAGB AGFA|dfaf gfed|Bdce dBAG|1 (3FGF EG FD :|2\
F2 EG FD D2||
